img/buyitback/history.svg

<svg width="24" height="24" viewBox="0 0 24 24" fill="none" xmlns="http://www.w3.org/2000/svg">
<path d="M20.4984 12C20.4984 16.6944 16.6929 20.5 11.9984 20.5C7.635 20.5 4.03947 17.2121 3.55417 12.9786C3.50786 12.5746 3.17848 12.25 2.77181 12.25C2.34948 12.25 2.00721 12.5991 2.04975 13.0193C2.56039 18.0634 6.8197 22 11.9984 22C17.5213 22 21.9985 17.5228 21.9985 12C21.9985 6.47715 17.5213 2 11.9984 2C8.34096 2 5.14207 3.96356 3.39845 6.89402V4.25C3.39845 3.83579 3.06266 3.5 2.64845 3.5C2.23423 3.5 1.89844 3.83579 1.89844 4.25V8.5C1.89844 8.69891 1.97746 8.88968 2.11811 9.03033C2.25877 9.17098 2.44953 9.25 2.64845 9.25H6.89845C7.31267 9.25 7.64845 8.91421 7.64845 8.5C7.64845 8.08579 7.31266 7.75 6.89845 7.75H4.6356C6.10529 5.20934 8.85225 3.5 11.9984 3.5C16.6929 3.5 20.4984 7.30558 20.4984 12Z" fill="#2A179C"/>
<path d="M11.9984 7.5C11.5842 7.5 11.2484 7.83579 11.2484 8.25V12C11.2484 12.268 11.3914 12.5155 11.6234 12.6495L15.304 14.7745C15.6628 14.9816 16.1215 14.8587 16.3286 14.5C16.5357 14.1413 16.4128 13.6826 16.0541 13.4755L12.7484 11.567V8.25C12.7484 7.83579 12.4127 7.5 11.9984 7.5Z" fill="#2A179C"/>
</svg>

<svg width="24" height="24" fill="none" xmlns="http://www.w3.org/2000/svg"><path d="M20.498 12a8.5 8.5 0 0 1-16.944.979c-.046-.404-.376-.729-.782-.729-.423 0-.765.35-.722.77.51 5.043 4.77 8.98 9.948 8.98 5.523 0 10-4.477 10-10s-4.477-10-10-10a9.995 9.995 0 0 0-8.6 4.894V4.25a.75.75 0 0 0-1.5 0V8.5a.75.75 0 0 0 .75.75h4.25a.75.75 0 1 0 0-1.5H4.636A8.5 8.5 0 0 1 20.499 12Z" fill="#2A179C"/><path d="M11.998 7.5a.75.75 0 0 0-.75.75V12a.75.75 0 0 0 .375.65l3.681 2.124a.75.75 0 0 0 .75-1.298l-3.306-1.909V8.25a.75.75 0 0 0-.75-.75Z" fill="#2A179C"/></svg>
